gbnetwork.svg

<svg height="100%" stroke-miterlimit="10" style="fill-rule:nonzero;clip-rule:evenodd;stroke-linecap:round;stroke-linejoin:round;" version="1.1" viewBox="0 0 24 24" width="100%" xml:space="preserve" xmlns="http://www.w3.org/2000/svg" xmlns:vectornator="http://vectornator.io" xmlns:xlink="http://www.w3.org/1999/xlink">
<defs>
<radialGradient cx="6404.33" cy="-190.973" gradientTransform="matrix(0.111152 0 0 0.29882 0.061258 7.49903)" gradientUnits="userSpaceOnUse" id="RadialGradient" r="19557.8">
<stop offset="0" stop-color="#e62a2a"/>
<stop offset="1" stop-color="#bc0000"/>
</radialGradient>
</defs>
<g id="Untitled" vectornator:layerName="Untitled">
<g opacity="1">
<path d="M12.6431 7.53638L12.6431 9.63111L22.1228 9.63111L22.1228 10.4783L24 10.4783L24 9.63111C24 8.93336 23.7846 8.40893 23.351 8.06081C22.9174 7.71119 22.3768 7.54086 21.7263 7.54983L14.9168 7.53638L12.6431 7.53638ZM2.27521 7.53638C1.64052 7.53638 1.10384 7.72912 0.662184 8.1146C0.220529 8.50007 0 8.96474 0 9.50859L0 10.4783L1.84282 10.4783C1.90766 10.2781 2.04632 10.1003 2.26177 9.94337C2.55162 9.73569 2.90841 9.63111 3.33274 9.63111L11.3581 9.63111L11.3581 7.53638C11.3581 7.53638 2.27521 7.53638 2.27521 7.53638ZM22.1228 13.4829L22.1228 14.3704L14.4479 14.3704L14.4479 13.4829L12.6431 13.4829L12.6431 16.4636L21.7143 16.4636C22.3726 16.4636 22.9174 16.2903 23.351 15.9407C23.7843 15.5911 24 15.0681 24 14.3704L24 13.4829L22.1228 13.4829ZM9.46392 13.4829C9.41103 13.698 9.26819 13.8848 9.03661 14.0432C8.77125 14.224 8.44733 14.3151 8.06126 14.3151L3.32078 14.3151C2.88839 14.3151 2.52772 14.2075 2.23816 13.9894C2.03705 13.8385 1.90647 13.6697 1.84551 13.4829L0 13.4829L0 14.4929C0 15.0368 0.220529 15.4999 0.662184 15.8869C1.10384 16.2724 1.64052 16.4636 2.27521 16.4636L9.08412 16.4636C9.71762 16.4636 10.254 16.2724 10.6957 15.8869C11.137 15.4999 11.3578 15.0368 11.3578 14.4929L11.3578 13.4829L9.46332 13.4829L9.46392 13.4829Z" fill="url(#RadialGradient)" fill-rule="evenodd" opacity="1" stroke="none"/>
<path d="M12.56 12.8351L12.56 11.0421L23.8368 11.0421C23.7777 11.5313 23.3889 11.8537 22.6706 12.0103C23.3862 12.079 23.7738 12.3534 23.8354 12.8351L12.56 12.8351ZM9.4185 12.8246L3.46691 12.8246L3.46691 11.0421L11.2834 11.0421L11.2834 12.8351L9.4173 12.8351C9.4173 12.8321 9.4185 12.8276 9.4185 12.8246ZM0 12.8351L0 11.0421L1.80427 11.0421C1.79919 11.075 1.79531 11.1079 1.79232 11.1407L1.79232 12.662C1.79232 12.7203 1.79919 12.7786 1.81085 12.8354L0 12.8354L0 12.8351Z" fill="#000000" fill-rule="evenodd" opacity="1" stroke="none"/>
</g>
</g>
</svg>

<svg stroke-miterlimit="10" style="fill-rule:nonzero;clip-rule:evenodd;stroke-linecap:round;stroke-linejoin:round" viewBox="0 0 24 24" xml:space="preserve" xmlns="http://www.w3.org/2000/svg" xmlns:vectornator="http://vectornator.io"><defs><radialGradient cx="6404.33" cy="-190.973" gradientTransform="matrix(.11115 0 0 .29882 .061 7.499)" gradientUnits="userSpaceOnUse" id="a" r="19557.8"><stop offset="0" stop-color="#e62a2a"/><stop offset="1" stop-color="#bc0000"/></radialGradient></defs><g fill-rule="evenodd" vectornator:layerName="Untitled"><path d="M12.643 7.536v2.095h9.48v.847H24v-.847c0-.698-.215-1.222-.649-1.57-.434-.35-.974-.52-1.625-.511l-6.81-.014h-2.273Zm-10.368 0c-.634 0-1.171.193-1.613.579C.221 8.5 0 8.965 0 9.509v.97h1.843c.065-.2.203-.379.419-.536.29-.207.646-.312 1.07-.312h8.026V7.536H2.275Zm19.848 5.947v.887h-7.675v-.887h-1.805v2.98h9.071c.659 0 1.203-.173 1.637-.522.433-.35.649-.873.649-1.57v-.888h-1.877Zm-12.66 0c-.052.215-.195.402-.426.56-.266.181-.59.272-.976.272h-4.74c-.433 0-.793-.107-1.083-.326-.201-.15-.332-.32-.392-.506H0v1.01c0 .544.22 1.007.662 1.394.442.385.979.577 1.613.577h6.81c.633 0 1.169-.192 1.61-.577.442-.387.663-.85.663-1.394v-1.01H9.463Z" fill="url(#a)"/><path d="M12.56 12.835v-1.793h11.277c-.06.49-.448.812-1.166.968.715.069 1.103.343 1.164.825H12.56Zm-3.142-.01H3.468v-1.783h7.816v1.793H9.417l.002-.01ZM0 12.835v-1.793h1.804a1.594 1.594 0 0 0-.012.099v1.521c0 .058.007.117.019.173H0Z"/></g></svg>
